assets/images/startups-icon.svg

<svg width="100" height="100" viewBox="0 0 100 100" fill="none" xmlns="http://www.w3.org/2000/svg">
<path fill-rule="evenodd" clip-rule="evenodd" d="M50 2C76.5 2 98 23.5 98 50C98 76.5 76.5 98 50 98C23.5 98 2 76.5 2 50C2 23.5 23.5 2 50 2Z" fill="#01B6C3"/>
<mask id="mask0" mask-type="alpha" maskUnits="userSpaceOnUse" x="2" y="2" width="96" height="96">
<path fill-rule="evenodd" clip-rule="evenodd" d="M50 2C76.5 2 98 23.5 98 50C98 76.5 76.5 98 50 98C23.5 98 2 76.5 2 50C2 23.5 23.5 2 50 2Z" fill="white"/>
</mask>
<g mask="url(#mask0)">
<path d="M11.3 56.5222V53.0222H90.3V56.5222L50.8 78.3222L11.3 56.5222Z" fill="#A9B3B6"/>
<path d="M11.3 56.5222V53.0222H50.7001L50.8 78.3222L11.3 56.5222Z" fill="#C7CCCE"/>
<path d="M11.3 53.0223L50.8 29.3223L90.3 53.0223L50.8 74.8223L11.3 53.0223Z" fill="#E1E4E1"/>
<path d="M47.1 31.5225L37.4 67.3225L33.7 65.3225L42.6 34.2225L47.1 31.5225Z" fill="white"/>
<path d="M63.2 36.8225L46.3 72.4225L42.7 70.4225L59.9 34.8225L63.2 36.8225Z" fill="white"/>
<path d="M61.8001 68.7225L49.9001 61.4225L52.1001 58.3225L65.8001 66.5225L61.8001 68.7225Z" fill="white"/>
<path d="M38.8 55.3226L23.3 45.8226L27 43.6226L41.1 52.2226L38.8 55.3226Z" fill="white"/>
<path d="M78.8 59.4225L74.5 61.8225C71.1 59.2225 69.5 55.8225 69.5 52.0225C69.5 48.5225 71.2 46.0225 74.4 43.5225L78.3 45.8225C76.1 47.5225 74.1 49.9225 74.1 51.9225C74.1 54.4225 76.4 57.5225 78.8 59.4225Z" fill="white"/>
<path fill-rule="evenodd" clip-rule="evenodd" d="M30.5 55.0224C30.5 56.0224 28.9 56.8224 27 56.8224C25.1 56.8224 23.5 56.0224 23.5 55.0224C23.5 54.0224 25.1 53.2224 27 53.2224C28.9 53.2224 30.5 54.0224 30.5 55.0224Z" fill="#A9B3B6"/>
<path d="M28.1374 31.5225H25.8374V55.6225H28.1374V31.5225Z" fill="#053A3E"/>
<path d="M28.1375 31.5225L42.2375 37.8225L28.1375 44.8225V31.5225Z" fill="#33A7CB"/>
<path d="M28.1375 31.5225L42.2375 37.8225L28.1375 38.1225V31.5225Z" fill="#0095B2"/>
<path fill-rule="evenodd" clip-rule="evenodd" d="M53.6001 42.9223C53.6001 43.9223 52.0001 44.7223 50.1001 44.7223C48.2001 44.7223 46.6001 43.9223 46.6001 42.9223C46.6001 41.9223 48.2001 41.1223 50.1001 41.1223C52.0001 41.1223 53.6001 41.9223 53.6001 42.9223Z" fill="#A9B3B6"/>
<path d="M51.2375 19.4224H48.9375V43.5224H51.2375V19.4224Z" fill="#053A3E"/>
<path d="M51.2375 19.4224L65.3375 25.7224L51.2375 32.7224V19.4224Z" fill="#C2423D"/>
<path d="M51.2375 19.4224L65.3375 25.7224L51.2375 26.0224V19.4224Z" fill="#AB3B37"/>
<path fill-rule="evenodd" clip-rule="evenodd" d="M66.8 58.3222C66.8 59.3222 65.2 60.1222 63.3 60.1222C61.4 60.1222 59.8 59.3222 59.8 58.3222C59.8 57.3222 61.4 56.5222 63.3 56.5222C65.2 56.5222 66.8 57.3222 66.8 58.3222Z" fill="#A9B3B6"/>
<path d="M64.4375 34.8223H62.1375V58.9223H64.4375V34.8223Z" fill="#053A3E"/>
<path d="M64.4375 34.8223L78.5375 41.1223L64.4375 48.1223V34.8223Z" fill="#7CB65A"/>
<path d="M64.4375 34.8223L78.5375 41.1223L64.4375 41.4223V34.8223Z" fill="#69994E"/>
</g>
<path d="M50 2C76.5 2 98 23.5 98 50C98 76.5 76.5 98 50 98C23.5 98 2 76.5 2 50C2 23.5 23.5 2 50 2Z" stroke="#1D8E96" stroke-width="4"/>
</svg>

<svg width="100" height="100" fill="none" xmlns="http://www.w3.org/2000/svg"><path fill-rule="evenodd" clip-rule="evenodd" d="M50 2c26.5 0 48 21.5 48 48S76.5 98 50 98 2 76.5 2 50 23.5 2 50 2Z" fill="#01B6C3"/><mask id="a" mask-type="alpha" maskUnits="userSpaceOnUse" x="2" y="2" width="96" height="96"><path fill-rule="evenodd" clip-rule="evenodd" d="M50 2c26.5 0 48 21.5 48 48S76.5 98 50 98 2 76.5 2 50 23.5 2 50 2Z" fill="#fff"/></mask><g mask="url(#a)"><path d="M11.3 56.522v-3.5h79v3.5l-39.5 21.8-39.5-21.8Z" fill="#A9B3B6"/><path d="M11.3 56.522v-3.5h39.4l.1 25.3-39.5-21.8Z" fill="#C7CCCE"/><path d="m11.3 53.022 39.5-23.7 39.5 23.7-39.5 21.8-39.5-21.8Z" fill="#E1E4E1"/><path d="m47.1 31.523-9.7 35.8-3.7-2 8.9-31.1 4.5-2.7Zm16.1 5.299-16.9 35.6-3.6-2 17.2-35.6 3.3 2Z" fill="#fff"/><path d="m61.8 68.722-11.9-7.3 2.2-3.1 13.7 8.2-4 2.2Zm-23-13.399-15.5-9.5 3.7-2.2 14.1 8.6-2.3 3.1Zm40 4.099-4.3 2.4c-3.4-2.6-5-6-5-9.8 0-3.5 1.7-6 4.9-8.5l3.9 2.3c-2.2 1.7-4.2 4.1-4.2 6.1 0 2.5 2.3 5.6 4.7 7.5Z" fill="#fff"/><path fill-rule="evenodd" clip-rule="evenodd" d="M30.5 55.022c0 1-1.6 1.8-3.5 1.8s-3.5-.8-3.5-1.8 1.6-1.8 3.5-1.8 3.5.8 3.5 1.8Z" fill="#A9B3B6"/><path d="M28.137 31.523h-2.3v24.1h2.3v-24.1Z" fill="#053A3E"/><path d="m28.137 31.523 14.1 6.3-14.1 7v-13.3Z" fill="#33A7CB"/><path d="m28.137 31.523 14.1 6.3-14.1.3v-6.6Z" fill="#0095B2"/><path fill-rule="evenodd" clip-rule="evenodd" d="M53.6 42.922c0 1-1.6 1.8-3.5 1.8s-3.5-.8-3.5-1.8 1.6-1.8 3.5-1.8 3.5.8 3.5 1.8Z" fill="#A9B3B6"/><path d="M51.237 19.422h-2.3v24.1h2.3v-24.1Z" fill="#053A3E"/><path d="m51.237 19.422 14.1 6.3-14.1 7v-13.3Z" fill="#C2423D"/><path d="m51.237 19.422 14.1 6.3-14.1.3v-6.6Z" fill="#AB3B37"/><path fill-rule="evenodd" clip-rule="evenodd" d="M66.8 58.322c0 1-1.6 1.8-3.5 1.8s-3.5-.8-3.5-1.8 1.6-1.8 3.5-1.8 3.5.8 3.5 1.8Z" fill="#A9B3B6"/><path d="M64.438 34.822h-2.3v24.1h2.3v-24.1Z" fill="#053A3E"/><path d="m64.438 34.822 14.1 6.3-14.1 7v-13.3Z" fill="#7CB65A"/><path d="m64.438 34.822 14.1 6.3-14.1.3v-6.6Z" fill="#69994E"/></g><path d="M50 2c26.5 0 48 21.5 48 48S76.5 98 50 98 2 76.5 2 50 23.5 2 50 2Z" stroke="#1D8E96" stroke-width="4"/></svg>
